X:1
T: Trip to the Cottage, The
T: The Self
C: J-7
M: 6/8
Z:
R: jig
K: G
Bc| "G"d^cd BGB| "D"cBc AFD| "G"DGG "D"FGA| "G"BGB "D"ABc|
    "G"d^cd BGB| "D"cBc AFD| "G"DGG "D"FGA| "G"BGG G2 :|
|:\
Bd| "G"gfe dBd| "C"ecA "G"Bcd| "C"ecA "G"dBG| "D"GAG AFD|
    "G"gfe dcd| "C"ecA "G"Bcd| "C"efg eag| "D"fdd d2 :|
%
